src/note.svg

<svg xmlns="http://www.w3.org/2000/svg" class="dibsvg-svg dibsvg-note" viewBox="0 0 100 100">
    <path d="M86.4260448,77.9792746 C86.8453559,77.9865545 87.2207922,78.3020392 87.3804606,78.7812844 C87.540129,79.2605295 87.4532894,79.811269 87.1597013,80.1813472 L73.9748461,96.4896373 C73.6750002,96.8632901 73.2220445,96.9755983 72.8287892,96.7737966 C72.4355339,96.5719949 72.1801518,96.0961983 72.1826281,95.5699482 L72.1826281,81.865285 C72.1826281,79.7191007 73.5903532,77.9792746 75.3268702,77.9792746 L86.4260448,77.9792746 Z M85.8076772,0 C88.1230331,0 90,2.31976814 90,5.18134715 L90,67.6165803 C90,69.0473698 89.0615166,70.2072539 87.9038386,70.2072539 L75.3268702,70.2072539 C70.1173193,70.2072539 65.8941438,75.4267322 65.8941438,81.865285 L65.8941438,97.4093264 C65.8941438,98.8401159 64.9556604,100 63.7979824,100 L14.1923228,100 C11.8769669,100 10,97.6802319 10,94.8186528 L10,5.18134715 C10,2.31976814 11.8769669,0 14.1923228,0 L85.8076772,0 Z M18.1750295,8.41968912 L18.1750295,91.5803109 L57.7191144,91.5803109 L57.7191144,81.865285 C57.7191144,71.081612 65.2390981,61.7875648 75.3268702,61.7875648 L81.8249705,61.7875648 L81.8249705,8.41968912 L18.1750295,8.41968912 Z M73.53373,26.5673575 L25.2216032,26.5673575 C23.5989364,26.5673575 22.2835051,24.8275314 22.2835051,22.6813472 C22.2835051,20.5351629 23.5989364,18.7953368 25.2216032,18.7953368 L73.53373,18.7953368 C75.1563968,18.7953368 76.4718281,20.5351629 76.4718281,22.6813472 C76.4718281,24.8275314 75.1563968,26.5673575 73.53373,26.5673575 Z M73.53373,45.1554369 L25.2216032,45.1554369 C23.5989364,45.1554369 22.2835051,43.4156108 22.2835051,41.2694265 C22.2835051,39.1232423 23.5989364,37.3834162 25.2216032,37.3834162 L73.53373,37.3834162 C75.1563968,37.3834162 76.4718281,39.1232423 76.4718281,41.2694265 C76.4718281,43.4156108 75.1563968,45.1554369 73.53373,45.1554369 Z M53.9464092,62.5 L25.2216032,62.5 C23.5989364,62.5 22.2835051,60.7601739 22.2835051,58.6139896 C22.2835051,56.4678054 23.5989364,54.7279793 25.2216032,54.7279793 L53.9464092,54.7279793 C55.5690759,54.7279793 56.8845073,56.4678054 56.8845073,58.6139896 C56.8845073,60.7601739 55.5690759,62.5 53.9464092,62.5 Z"/>
</svg>

<svg xmlns="http://www.w3.org/2000/svg" class="dibsvg-svg dibsvg-note" viewBox="0 0 100 100">
    <path d="M86.426 77.98c.42.007.795.322.954.801.16.48.073 1.03-.22 1.4L73.975 96.49c-.3.373-.753.486-1.146.284-.393-.202-.649-.678-.646-1.204V81.865c0-2.146 1.407-3.886 3.144-3.886h11.099zM85.808 0C88.123 0 90 2.32 90 5.181v62.436c0 1.43-.938 2.59-2.096 2.59H75.327c-5.21 0-9.433 5.22-9.433 11.658V97.41c0 1.431-.938 2.591-2.096 2.591H14.192C11.877 100 10 97.68 10 94.819V5.18C10 2.32 11.877 0 14.192 0h71.616zM18.175 8.42v83.16h39.544v-9.715c0-10.783 7.52-20.077 17.608-20.077h6.498V8.42h-63.65zm55.359 18.147H25.222c-1.623 0-2.938-1.74-2.938-3.886s1.315-3.886 2.938-3.886h48.312c1.622 0 2.938 1.74 2.938 3.886 0 2.147-1.316 3.886-2.938 3.886zm0 18.588H25.222c-1.623 0-2.938-1.74-2.938-3.886s1.315-3.886 2.938-3.886h48.312c1.622 0 2.938 1.74 2.938 3.886 0 2.147-1.316 3.886-2.938 3.886zM53.946 62.5H25.222c-1.623 0-2.938-1.74-2.938-3.886s1.315-3.886 2.938-3.886h28.724c1.623 0 2.939 1.74 2.939 3.886S55.569 62.5 53.946 62.5z"/>
</svg>
